Modules/BetterCms.Module.Root/Scss/base_64/icons/overlay-history.svg

<svg xmlns="http://www.w3.org/2000/svg" width="18" height="18" viewBox="0 0 18 18">
 <path fill="#fff" fill-rule="evenodd" d="m9 18c-4.971 0-9-4.029-9-9 0-4.971 4.029-9 9-9 4.971 0 9 4.029 9 9 0 4.971-4.029 9-9 9m0-15.158c-3.401 0-6.158 2.757-6.158 6.158 0 3.401 2.757 6.158 6.158 6.158 3.401 0 6.158-2.757 6.158-6.158 0-3.401-2.757-6.158-6.158-6.158m3 8.158h-4c-.552 0-1-.448-1-1v-4c0-.552.448-1 1-1 .552 0 1 .448 1 1v3h3c.552 0 1 .448 1 1 0 .552-.448 1-1 1"/>
</svg>

<svg xmlns="http://www.w3.org/2000/svg" preserveAspectRatio="xMidYMid" width="18" height="18" viewBox="0 0 18 18">
  <path fill="#ffffff" fill-rule="evenodd" d="M9.000,18.000 C4.029,18.000 0.000,13.971 0.000,9.000 C0.000,4.029 4.029,0.000 9.000,0.000 C13.971,0.000 18.000,4.029 18.000,9.000 C18.000,13.971 13.971,18.000 9.000,18.000 ZM9.000,2.842 C5.599,2.842 2.842,5.599 2.842,9.000 C2.842,12.401 5.599,15.158 9.000,15.158 C12.401,15.158 15.158,12.401 15.158,9.000 C15.158,5.599 12.401,2.842 9.000,2.842 ZM12.000,11.000 L8.000,11.000 C7.448,11.000 7.000,10.552 7.000,10.000 L7.000,6.000 C7.000,5.448 7.448,5.000 8.000,5.000 C8.552,5.000 9.000,5.448 9.000,6.000 L9.000,9.000 L12.000,9.000 C12.552,9.000 13.000,9.448 13.000,10.000 C13.000,10.552 12.552,11.000 12.000,11.000 Z"/>
</svg>
